X: 1
T: the First Pint
C: Colin Farrell
O: as played by Katie McNally
R: jig
D: Kevin Crawford
Z: 2019 John Chambers <jc:trillian.mit.edu>
S: Page from Concord Slow Scottish Session collection (added 2019-9)
M: 6/8
L: 1/8
K: D
|:\
"D"dAB d2A | "D"Bdf  efd | "G"Bee ede | "A7"faf g2f |\
"D"dAB d2A | "Bm"Bdf efd | "G"Bee edB | "A7"AFE "D"D3 :|
|:\
"G"~B3 BAF | "A"ABc "D"d2B | "D"FAA ABA | "D"FAA AFA |\
"G"~B3 BAF | "A"ABc "D"d2A | "D"ddd dBA |1 "A7"a2g- "(D)"gfd :|2 "D"ddd "A"HdBA |]
